fs/checkbox_checked_sync_16_regular.svg

<svg viewBox="0 0 16 16" fill="none" xmlns="http://www.w3.org/2000/svg" height="1em" width="1em">
  <path d="M2.5 0C1.11929 0 0 1.11929 0 2.5V9.5C0 10.8807 1.11929 12 2.5 12H6.02242C6.00758 11.8353 6 11.6685 6 11.5C6 11.3315 6.00758 11.1647 6.02242 11H2.5C1.67157 11 1 10.3284 1 9.5V2.5C1 1.67157 1.67157 1 2.5 1H9.5C10.3284 1 11 1.67157 11 2.5V6.02242C11.1647 6.00758 11.3315 6 11.5 6C11.6685 6 11.8353 6.00758 12 6.02242V2.5C12 1.11929 10.8807 0 9.5 0H2.5ZM8.85355 4.85355C9.04882 4.65829 9.04882 4.34171 8.85355 4.14645C8.65829 3.95118 8.34171 3.95118 8.14645 4.14645L5 7.29289L3.85355 6.14645C3.65829 5.95118 3.34171 5.95118 3.14645 6.14645C2.95118 6.34171 2.95118 6.65829 3.14645 6.85355L4.64645 8.35355C4.84171 8.54882 5.15829 8.54882 5.35355 8.35355L8.85355 4.85355ZM7 11.5C7 13.9853 9.01472 16 11.5 16C13.9853 16 16 13.9853 16 11.5C16 9.01472 13.9853 7 11.5 7C9.01472 7 7 9.01472 7 11.5ZM13.5 8.5C13.7761 8.5 14 8.72386 14 9V10.5C14 10.7761 13.7761 11 13.5 11H12C11.7239 11 11.5 10.7761 11.5 10.5C11.5 10.2239 11.7239 10 12 10H12.4682C12.4179 9.97215 12.3663 9.94644 12.3135 9.92296C12.0682 9.81372 11.8034 9.755 11.535 9.75031C11.2665 9.74561 10.9998 9.79503 10.7508 9.89562C10.5018 9.99621 10.2756 10.1459 10.0857 10.3358C9.89048 10.531 9.5739 10.531 9.37864 10.3358C9.18338 10.1405 9.18338 9.82394 9.37864 9.62868C9.66346 9.34386 10.0027 9.11931 10.3762 8.96842C10.7497 8.81754 11.1497 8.74341 11.5524 8.75046C11.9552 8.75751 12.3524 8.84558 12.7203 9.00944C12.8162 9.05211 12.9095 9.0997 13 9.15195V9C13 8.72386 13.2239 8.5 13.5 8.5ZM12.6238 14.0316C12.2503 14.1825 11.8503 14.2566 11.4476 14.2495C11.0448 14.2425 10.6476 14.1544 10.2797 13.9906C10.1838 13.9479 10.0905 13.9003 10 13.8481V14C10 14.2761 9.77614 14.5 9.5 14.5C9.22386 14.5 9 14.2761 9 14V12.5C9 12.2239 9.22386 12 9.5 12H11C11.2761 12 11.5 12.2239 11.5 12.5C11.5 12.7761 11.2761 13 11 13H10.5318C10.5821 13.0278 10.6337 13.0536 10.6865 13.077C10.9318 13.1863 11.1966 13.245 11.465 13.2497C11.7335 13.2544 12.0002 13.205 12.2492 13.1044C12.4982 13.0038 12.7244 12.8541 12.9143 12.6642C13.1095 12.469 13.4261 12.469 13.6214 12.6642C13.8166 12.8595 13.8166 13.1761 13.6214 13.3713C13.3365 13.6561 12.9973 13.8807 12.6238 14.0316Z" fill="#212121"/>
</svg>

<svg viewBox="0 0 16 16" fill="none" xmlns="http://www.w3.org/2000/svg" height="1em" width="1em">
  <path d="M2.5 0A2.5 2.5 0 0 0 0 2.5v7A2.5 2.5 0 0 0 2.5 12h3.522a5.571 5.571 0 0 1 0-1H2.5A1.5 1.5 0 0 1 1 9.5v-7A1.5 1.5 0 0 1 2.5 1h7A1.5 1.5 0 0 1 11 2.5v3.522a5.571 5.571 0 0 1 1 0V2.5A2.5 2.5 0 0 0 9.5 0h-7Zm6.354 4.854a.5.5 0 1 0-.708-.708L5 7.293 3.854 6.146a.5.5 0 1 0-.708.708l1.5 1.5a.5.5 0 0 0 .708 0l3.5-3.5ZM7 11.5a4.5 4.5 0 1 0 9 0 4.5 4.5 0 0 0-9 0Zm6.5-3a.5.5 0 0 1 .5.5v1.5a.5.5 0 0 1-.5.5H12a.5.5 0 0 1 0-1h.468a1.982 1.982 0 0 0-.933-.25 2 2 0 0 0-1.45.586.5.5 0 0 1-.706-.707A3 3 0 0 1 13 9.152V9a.5.5 0 0 1 .5-.5Zm-.876 5.532A2.999 2.999 0 0 1 10 13.848V14a.5.5 0 0 1-1 0v-1.5a.5.5 0 0 1 .5-.5H11a.5.5 0 0 1 0 1h-.468a1.999 1.999 0 0 0 2.383-.336.5.5 0 0 1 .706.707c-.285.285-.624.51-.997.66Z" fill="#212121"/>
</svg>
